X: 3433
T: WALTZ FROM "BOHEMIAN GIRL."
%R: waltz
B: James Kerr "Merry Melodies" v.3 p.49 #433
Z: 2016 John Chambers <jc:trillian.mit.edu>
M: 3/4
L: 1/8
K: G
|:\
(d4g2) | (g4B2) | BBe2d2 | B6 |\
(d4b2) | (b4B2) | ddc2^G2 | A6 |\
(d4g2) | (g4B2) | BBe2d2 | B6 |\
(b4^d2) | (b4e2) | d'c'afdf | g2z2z2 H::\
d2ddd2 | g2a2_b2 | _b2a2^g2 | a6 |
_BA=BA^cA | dfedcB | ^GAcB=GE | EDFAdd |\
=f_edefe | c'3_bg_f | _ed^cded | _b3a=fd |\
^c=BABcd | efgab^c' | d'2d2z2 | d2D2"_D.C."z2 :|

%%sep 1 1 500
%%sep 1 1 500

